X:624
T: Fanshen le
N: C2143
O: China, Hubei Huangpuo
S: I, 387]
R: Xiaodiao, Sijimang diao]
M: 2/4
L: 1/16
K: C
G2G2G3G | G2G4Ac | d2d4c2 | c3AG4
c2c2c2EG | AcE2G4 | A2G4A2 | c2d4c2
c2c2c2G2 | c2c4A2 | G3EG4 | A2ddc2A2 | G2E2G4
d2d4c2 | c3AG4 | c3cc2G2 | c2c4A2 | G3EG4

